X:1
T:Vanuatu, 77.77 D
T:Vanuatu, 77.77 D
T:D. T. Browne, 1899
T:Public Domain Courtesy of the Cyber Hymnal™
C:D. T. Browne, 1899
Z:Public Domain
Z:Courtesy of the Cyber Hymnal™
%%score ( 1 2 ) ( 3 4 )
L:1/8
Q:1/4=107
M:4/4
K:C
V:1 treble 
V:2 treble 
V:3 bass 
V:4 bass 
V:1
 [CE]>[DF] | [EG]2 C2 [Ec]3 [EG] | ([GB]2 [FA]4) z2 | [FB]3 [FA] [FG][FG][FA][FB] | %4
 [Ec]6 [CE]>[DF] | [EG]2 C2 [Ec]3 [EG] | ([GB]2 [FA]4) z2 | [FB]3 [FA] [FG][FG][FA][FB] | %8
 [Ec]6 z2 | [Bd]3 [Ac] [GB]2 [FA]2 | [EG]2 [DF]2 ([CE]2 [EG]2) | [Bd]3 [Ac] [GB]2 [FA]2 | %12
 [EG]2 [DF]2 ([CE]2 [EG]2) | [Ge]3 [Fd] [Ec]2 [EG]2 | [DB]2 [FA]2 [FA]4 | %15
 [FB]3 [FA] [FG][FG][FA][FB] | [Ec]6 z2 |] %17
V:2
 x2 | x2 C2 x4 | x8 | x8 | x8 | x2 C2 x4 | x8 | x8 | x8 | x8 | x8 | x8 | x8 | x8 | x8 | x8 | x8 |] %17
V:3
 [C,G,]>[C,G,] | [C,C]2 [C,E,]2 [C,G,]3 [C,C] | [F,C]6 z2 | G,3 G, [G,B,][G,B,][G,D][G,D] | %4
 [C,C]6 [C,G,]>[C,G,] | [C,C]2 [C,E,]2 [C,G,]3 [C,C] | [F,C]6 z2 | G,3 G, [G,B,][G,B,][G,D][G,D] | %8
 [C,C]6 z2 | G,3 G, [G,D]2 [G,B,]2 | [C,C]2 [C,C]2 [C,G,]4 | [G,,G,]3 [G,,G,] [G,,G,]2 [G,,B,]2 | %12
 [C,C]2 [C,C]2 [C,C]4 | C3 [G,B,] [A,C]2 [E,C]2 | [F,A,]2 [F,C]2 [F,C]4 | %15
 G,3 G, [G,B,][G,B,][G,D][G,D] | [C,C]6 z2 |] %17
V:4
 x2 | x8 | x8 | G,3 G, x4 | x8 | x8 | x8 | G,3 G, x4 | x8 | G,3 G, x4 | x8 | x8 | x8 | C3 x5 | x8 | %15
 G,3 G, x4 | x8 |] %17

